X: 03009
T: BICKYS REEL
C: Bob McQuillen 27 May 77
B: Bob's Note Book 03 #9
R: reel
%D:1977
Z: 2020 John Chambers <jc:trillian.mit.edu>
M: C
L: 1/8
K: A	% and F#m
cd \
| e2e2 aecd | ecA2 A2GA | BABc B2AB | cBcd ecAc |\
| e2e2 aecd | ecA2 A2GA | BABd cAB2 | A6 :|
|: AB \
| c2c2 fcAB | cAF2 F2GA | BABc BGAB | cBcd cAFA |\
| c2c2 fcAB | cAF2 F2GA | BABc AFG2 | F6 :|
%%begintext align
%% There is a real nice family named
%% Bicknell who live in Francestown
%% and this tune is for all of them with
%% love from Mr. Mac
%%endtext

%%sep 1 1 500

%%sep 1 1 500

